X: 2402
T: Balquidder Strathspey
P: Mr Oswald (of Auchencruive)
C:R. Mackintosh
R:Strathspey (8x32)
B:RSCDS 24-2
Z:Anselm Lingnau <anselm@strathspey.org>
M:C
L:1/8
K:G
D|"G"G>A B<d B>A B<g|d<B A>G "D7"F<A A>B|\
  "G"G/A/B B<B "Em"B>A Bg|"D7"d<B A>G "G"D/G/G D|
  "G"G>A B<d B>A B<g|d<B A>G "D7"F<A A>B|\
  "G"G/A/B B<B "Em"B>A Bg|"D7"d<B A>G "G"D/G/G||
f|"G"g>a b<g "D7"f<d a<f|"Em"g/f/g/a/ b>g "D7"f<aa>f|\
  "G"g>a b<g "D7"f<d a<f|"C"g<e "D7"d>c "G"B<GG>f|
  "G"g>a b<g "D7"f<d a<f|"G"g/f/g/a/ bg "D7"f<aa>f|\
  "Em"g<b "D"a<b "Em"g<a "Bm"f<g|"Am"e<a "D7"f<d "G"g>a g|]
%%center Book24/2402-Balquidder_Strathspey-AL.abc

%%sep 1 1 500
%%sep 1 1 500

